X:18591
T:Wembals Hornpipe
M:2/2
L:1/8
S:Armitt MS
N:Bar 3 of the B music has a sharp sign in the
N:top space ('E') at the begining of the bar.  Which may indicate the the
N:E flat is to be sharpened i.e. E natural, in accordance with Baroque
N:usage.  Unfortunately there is also what may be a sharp in the second
N:space down ('C') before the last note of that bar and a sharp on the
N:second line down ('D') of the following bar between the two groups of
N:quavers
K:B_ major
F|Bd/2 fb/2 gfdc|ecdB BAGF|GEDE C2cd/2|ecdB BAGF|Bd/2 fa gfdc|ecdB BAGF|
GEDE C2
cd|ecBA B2:||: f/2g/2a/2|bfdf efcf|dfBf cfAe|"see note re accidentals"Bf
cf dfeg|bgfe ffg/2a/2|bfdf efcf|dfBf cBAG|DBFB GBAc|ecBAB2:||


